X:1
T:Michael Row the Boat Ashore
C:Traditional (American)
M:4/4
L:1/4
Q:1/4=100
K:G

|: G G G A | B B c B | A G G2 | G G G A | B B c B | A G F G | A4 :|
w: Mi-chael row the | boat a-shore hal- | le-lu-jah | Mi-chael row the | boat a-shore hal- | le-lu-jah | *
w: Sis-ter help to | trim the sail hal- | le-lu-jah | Sis-ter help to | trim the sail hal- | le-lu-jah | *
